svgs/themed_icon_calendar_1.svg

<svg height="192" width="192" xmlns="http://www.w3.org/2000/svg"><path d="M146 30H46c-8.837 0-16 7.163-16 16v100c0 8.837 7.163 16 16 16h75.373a16 16 0 0 0 11.313-4.686l24.628-24.628A16 16 0 0 0 162 121.373V46c0-8.837-7.163-16-16-16Z" stroke="#000" stroke-width="12" fill="none"/><path d="M85.718 120c-3.168 0-4.752-1.536-4.752-4.608 0-3.024 1.584-4.536 4.752-4.536h7.272V81.624l-5.256 3.168c-1.392.816-2.64 1.032-3.744.648s-1.944-1.104-2.52-2.16c-.576-1.056-.744-2.184-.504-3.384.24-1.248 1.032-2.304 2.376-3.168L93.35 70.68a17.78 17.78 0 0 1 3.024-1.512c1.056-.384 2.088-.576 3.096-.576 1.44 0 2.568.384 3.384 1.152.864.768 1.296 1.896 1.296 3.384v37.728h6.552c3.12 0 4.68 1.512 4.68 4.536 0 3.072-1.56 4.608-4.68 4.608H85.718Z"/></svg>

<?xml version="1.0" encoding="UTF-8" standalone="no"?><svg xmlns:android="http://schemas.android.com/apk/res/android" height="192" width="192" xmlns="http://www.w3.org/2000/svg">
  <path d="M146,30H46C37.163,30 30,37.163 30,46V146C30,154.837 37.163,162 46,162H121.373C125.616,162 129.686,160.314 132.686,157.314L157.314,132.686C160.314,129.686 162,125.616 162,121.373V46C162,37.163 154.837,30 146,30Z" fill="#000000" fill-opacity="0.0" stroke="#000000" stroke-width="12"/>
  <path d="M85.718,120C82.55,120 80.966,118.464 80.966,115.392C80.966,112.368 82.55,110.856 85.718,110.856H92.99V81.624L87.734,84.792C86.342,85.608 85.094,85.824 83.99,85.44C82.886,85.056 82.046,84.336 81.47,83.28C80.894,82.224 80.726,81.096 80.966,79.896C81.206,78.648 81.998,77.592 83.342,76.728L93.35,70.68C94.358,70.056 95.366,69.552 96.374,69.168C97.43,68.784 98.462,68.592 99.47,68.592C100.91,68.592 102.038,68.976 102.854,69.744C103.718,70.512 104.15,71.64 104.15,73.128V110.856H110.702C113.822,110.856 115.382,112.368 115.382,115.392C115.382,118.464 113.822,120 110.702,120H85.718Z" fill="#000000"/>
</svg>
